assets/arrowdown.svg

<svg width="28" height="28" viewBox="0 0 28 28" fill="none" xmlns="http://www.w3.org/2000/svg">
<path d="M14.0003 26.6081C6.99222 26.6081 1.31107 20.927 1.31107 13.9189C1.31107 6.91088 6.99222 1.22974 14.0003 1.22974C21.0083 1.22974 26.6895 6.91088 26.6895 13.9189C26.6895 20.927 21.0083 26.6081 14.0003 26.6081Z" stroke="#376FE3" stroke-linecap="round" stroke-linejoin="round"/>
<path d="M8.36086 13.9189L14.0005 19.5586M19.6401 13.9189L14.0005 19.5586L19.6401 13.9189ZM14.0005 8.2793V19.5586V8.2793Z" stroke="#376FE3" stroke-linecap="round" stroke-linejoin="round"/>
</svg>

<svg width="28" height="28" fill="none" xmlns="http://www.w3.org/2000/svg"><path d="M14 26.608c-7.008 0-12.689-5.681-12.689-12.69 0-7.007 5.681-12.688 12.69-12.688 7.007 0 12.688 5.68 12.688 12.689 0 7.008-5.68 12.69-12.689 12.69zM8.36 13.919l5.64 5.64m5.64-5.64L14 19.559l5.64-5.64zM14 8.279v11.28-11.28z" stroke="#376FE3" stroke-linecap="round" stroke-linejoin="round"/></svg>
